;FLAVOR:UltiGCode
;TIME:6604
;MATERIAL:9422
;MATERIAL2:0
;NOZZLE_DIAMETER:0.4
;Generated with Cura_SteamEngine 3.3.1
M82 ;absolute extrusion mode

G92 E0
G10
;LAYER_COUNT:64
;LAYER:0
M107
G0 F3600 X94.557 Y27.166 Z0.3
;TYPE:SKIRT
G11
G1 F1800 X94.831 Y26.426 E0.09469
G1 X95.179 Y25.717 E0.18947
G1 X95.597 Y25.046 E0.28433
G1 X96.08 Y24.422 E0.37902
G1 X96.623 Y23.849 E0.47375
G1 X97.222 Y23.334 E0.56855
G1 X97.87 Y22.883 E0.66329
G1 X98.561 Y22.499 E0.75815
G1 X99.286 Y22.187 E0.85287
G1 X100.039 Y21.95 E0.9476
G1 X100.813 Y21.791 E1.04242
G1 X101.598 Y21.71 E1.13712
G1 X102 Y21.7 E1.18537
G1 X127 Y21.7 E4.18537
G1 X127.789 Y21.74 E4.28017
G1 X128.569 Y21.859 E4.37486
G1 X129.334 Y22.057 E4.46968
G1 X130.074 Y22.331 E4.56437
G1 X130.783 Y22.679 E4.65915
G1 X131.454 Y23.097 E4.75401
G1 X132.078 Y23.58 E4.8487
G1 X132.651 Y24.123 E4.94343
G1 X133.166 Y24.722 E5.03823
G1 X133.617 Y25.37 E5.13297
G1 X134.001 Y26.061 E5.22783
G1 X134.313 Y26.786 E5.32255
G1 X134.55 Y27.539 E5.41728
G1 X134.709 Y28.313 E5.5121
G1 X134.79 Y29.098 E5.6068
G1 X134.8 Y29.5 E5.65505
G1 X134.8 Y193.5 E25.33505
G1 X134.76 Y194.289 E25.42985
G1 X134.641 Y195.069 E25.52454
G1 X134.443 Y195.834 E25.61936
G1 X134.169 Y196.574 E25.71405
G1 X133.821 Y197.283 E25.80883
G1 X133.403 Y197.954 E25.90369
G1 X132.92 Y198.578 E25.99838
G1 X132.377 Y199.151 E26.09311
G1 X131.778 Y199.666 E26.18791
G1 X131.13 Y200.117 E26.28265
G1 X130.439 Y200.501 E26.37751
G1 X129.714 Y200.813 E26.47223
G1 X128.961 Y201.05 E26.56696
G1 X128.187 Y201.209 E26.66178
G1 X127.402 Y201.29 E26.75648
G1 X127 Y201.3 E26.80473
G1 X119 Y201.3 E27.76473
G1 X118.211 Y201.26 E27.85953
G1 X117.431 Y201.141 E27.95422
G1 X116.666 Y200.943 E28.04904
G1 X115.926 Y200.669 E28.14373
G1 X115.217 Y200.321 E28.23851
G1 X114.546 Y199.903 E28.33337
G1 X113.922 Y199.42 E28.42807
G1 X113.349 Y198.877 E28.52279
G1 X112.834 Y198.278 E28.61759
G1 X112.383 Y197.63 E28.71233
G1 X111.999 Y196.939 E28.80719
G1 X111.687 Y196.214 E28.90191
G1 X111.45 Y195.461 E28.99664
G1 X111.291 Y194.687 E29.09146
G1 X111.21 Y193.902 E29.18616
G1 X111.2 Y193.5 E29.23441
G1 X111.2 Y125.789 E37.35973
G1 X94.323 Y115.087 E39.75783
G1 X93.678 Y114.631 E39.85262
G1 X93.083 Y114.112 E39.94736
G1 X92.543 Y113.536 E40.04211
G1 X92.065 Y112.907 E40.13691
G1 X91.652 Y112.234 E40.23166
G1 X91.309 Y111.523 E40.32639
G1 X91.041 Y110.78 E40.42118
G1 X90.848 Y110.014 E40.51597
G1 X90.734 Y109.233 E40.61068
G1 X90.7 Y108.5 E40.69874
G1 X90.7 Y98.23 E41.93114
G1 X90.485 Y98.015 E41.96762
G1 X89.955 Y97.429 E42.06244
G1 X89.488 Y96.793 E42.15712
G1 X89.087 Y96.113 E42.25186
G1 X88.757 Y95.395 E42.34668
G1 X88.502 Y94.648 E42.4414
G1 X88.323 Y93.879 E42.53615
G1 X88.223 Y93.095 E42.63099
G1 X88.2 Y92.5 E42.70244
G1 X88.2 Y79 E44.32244
G1 X88.24 Y78.211 E44.41724
G1 X88.359 Y77.431 E44.51193
G1 X88.557 Y76.666 E44.60675
G1 X88.831 Y75.926 E44.70144
G1 X89.179 Y75.217 E44.79622
G1 X89.597 Y74.546 E44.89108
G1 X90.08 Y73.922 E44.98578
G1 X90.623 Y73.349 E45.08051
G1 X91.222 Y72.834 E45.1753
G1 X91.87 Y72.383 E45.27004
G1 X92.561 Y71.999 E45.3649
G1 X93.286 Y71.687 E45.45962
G1 X94.039 Y71.45 E45.55435
G1 X94.813 Y71.291 E45.64917
G1 X95.598 Y71.21 E45.74387
G1 X96 Y71.2 E45.79212
G1 X100.2 Y71.2 E46.29612
G1 X100.2 Y59 E47.76012
G1 X100.24 Y58.211 E47.85492
G1 X100.359 Y57.431 E47.94961
G1 X100.557 Y56.666 E48.04443
G1 X100.831 Y55.926 E48.13912
G1 X101.179 Y55.217 E48.2339
G1 X101.597 Y54.546 E48.32876
G1 X102.08 Y53.922 E48.42346
G1 X102.623 Y53.349 E48.51819
G1 X103.222 Y52.834 E48.61298
G1 X103.87 Y52.383 E48.70772
G1 X104.561 Y51.999 E48.80258
G1 X105.286 Y51.687 E48.8973
G1 X106.039 Y51.45 E48.99203
G1 X106.813 Y51.291 E49.08685
G1 X107.598 Y51.21 E49.18155
G1 X108 Y51.2 E49.2298
G1 X112.2 Y51.2 E49.7338
G1 X112.2 Y46.8 E50.2618
G1 X102 Y46.8 E51.4858
G1 X101.211 Y46.76 E51.5806
G1 X100.431 Y46.641 E51.67529
G1 X99.666 Y46.443 E51.77011
G1 X98.926 Y46.169 E51.8648
G1 X98.217 Y45.821 E51.95958
G1 X97.546 Y45.403 E52.05444
G1 X96.922 Y44.92 E52.14914
G1 X96.349 Y44.377 E52.24387
G1 X95.834 Y43.778 E52.33866
G1 X95.383 Y43.13 E52.4334
G1 X94.999 Y42.439 E52.52826
G1 X94.687 Y41.714 E52.62298
G1 X94.45 Y40.961 E52.71771
G1 X94.291 Y40.187 E52.81253
G1 X94.21 Y39.402 E52.90723
G1 X94.2 Y39 E52.95548
G1 X94.2 Y29.5 E54.09548
G1 X94.24 Y28.711 E54.19028
G1 X94.359 Y27.931 E54.28497
G1 X94.557 Y27.166 E54.37979
G0 F3600 X94.957 Y27.229
G1 F1800 X95.231 Y26.51 E54.47212
G1 X95.578 Y25.824 E54.56438
G1 X95.994 Y25.177 E54.65668
G1 X96.475 Y24.577 E54.74896
G1 X97.016 Y24.03 E54.84128
G1 X97.611 Y23.542 E54.93362
G1 X98.253 Y23.119 E55.02588
G1 X98.936 Y22.764 E55.11825
G1 X99.651 Y22.483 E55.21044
G1 X100.393 Y22.277 E55.30285
G1 X101.151 Y22.149 E55.3951
G1 X102 Y22.1 E55.49715
G1 X127 Y22.1 E58.49715
G1 X127.768 Y22.14 E58.58943
G1 X128.528 Y22.259 E58.68174
G1 X129.271 Y22.457 E58.77401
G1 X129.99 Y22.731 E58.86635
G1 X130.676 Y23.078 E58.9586
G1 X131.323 Y23.494 E59.0509
G1 X131.923 Y23.975 E59.14318
G1 X132.47 Y24.516 E59.2355
G1 X132.958 Y25.111 E59.32785
G1 X133.381 Y25.753 E59.42011
G1 X133.736 Y26.436 E59.51248
G1 X134.017 Y27.151 E59.60466
G1 X134.223 Y27.893 E59.69707
G1 X134.351 Y28.651 E59.78932
G1 X134.4 Y29.5 E59.89137
G1 X134.4 Y193.5 E79.57137
G1 X134.36 Y194.268 E79.66365
G1 X134.241 Y195.028 E79.75597
G1 X134.043 Y195.771 E79.84824
G1 X133.769 Y196.49 E79.94057
G1 X133.422 Y197.176 E80.03282
G1 X133.006 Y197.823 E80.12513
G1 X132.525 Y198.423 E80.21741
G1 X131.984 Y198.97 E80.30973
G1 X131.389 Y199.458 E80.40207
G1 X130.747 Y199.881 E80.49433
G1 X130.064 Y200.236 E80.5867
G1 X129.349 Y200.517 E80.67889
G1 X128.607 Y200.723 E80.7713
G1 X127.849 Y200.851 E80.86354
G1 X127 Y200.9 E80.96559
G1 X119 Y200.9 E81.92559
G1 X118.232 Y200.86 E82.01788
G1 X117.472 Y200.741 E82.11019
G1 X116.729 Y200.543 E82.20246
G1 X116.01 Y200.269 E82.29479
G1 X115.324 Y199.922 E82.38705
G1 X114.677 Y199.506 E82.47935
G1 X114.077 Y199.025 E82.57163
G1 X113.53 Y198.484 E82.66395
G1 X113.042 Y197.889 E82.75629
G1 X112.619 Y197.247 E82.84855
G1 X112.264 Y196.564 E82.94092
G1 X111.983 Y195.849 E83.03311
G1 X111.777 Y195.107 E83.12552
G1 X111.649 Y194.349 E83.21777
G1 X111.6 Y193.5 E83.31982
G1 X111.6 Y125.569 E91.47154
G1 X94.537 Y114.749 E93.89607
G1 X93.91 Y114.304 E93.98833
G1 X93.332 Y113.796 E94.08067
G1 X92.81 Y113.231 E94.17298
G1 X92.35 Y112.615 E94.26523
G1 X91.956 Y111.955 E94.35747
G1 X91.633 Y111.257 E94.44977
G1 X91.384 Y110.529 E94.5421
G1 X91.211 Y109.779 E94.63446
G1 X91.118 Y109.016 E94.7267
G1 X91.1 Y108.5 E94.78865
G1 X91.1 Y98.066 E96.04073
G1 X90.767 Y97.733 E96.09725
G1 X90.253 Y97.161 E96.18953
G1 X89.8 Y96.539 E96.28186
G1 X89.414 Y95.874 E96.37413
G1 X89.099 Y95.172 E96.46647
G1 X88.859 Y94.441 E96.55879
G1 X88.696 Y93.69 E96.65101
G1 X88.612 Y92.925 E96.74336
G1 X88.6 Y92.5 E96.79438
G1 X88.6 Y79 E98.41438
G1 X88.64 Y78.232 E98.50667
G1 X88.759 Y77.472 E98.59898
G1 X88.957 Y76.729 E98.69125
G1 X89.231 Y76.01 E98.78358
G1 X89.578 Y75.324 E98.87584
G1 X89.994 Y74.677 E98.96814
G1 X90.475 Y74.077 E99.06042
G1 X91.016 Y73.53 E99.15274
G1 X91.611 Y73.042 E99.24508
G1 X92.253 Y72.619 E99.33734
G1 X92.936 Y72.264 E99.42971
G1 X93.651 Y71.983 E99.5219
G1 X94.393 Y71.777 E99.61431
G1 X95.151 Y71.649 E99.70656
G1 X96 Y71.6 E99.80861
G1 X100.6 Y71.6 E100.36061
G1 X100.6 Y59 E101.87261
G1 X100.64 Y58.232 E101.96489
G1 X100.759 Y57.472 E102.0572
G1 X100.957 Y56.729 E102.14947
G1 X101.231 Y56.01 E102.24181
G1 X101.578 Y55.324 E102.33406
G1 X101.994 Y54.677 E102.42636
G1 X102.475 Y54.077 E102.51864
G1 X103.016 Y53.53 E102.61096
G1 X103.611 Y53.042 E102.70331
G1 X104.253 Y52.619 E102.79557
G1 X104.936 Y52.264 E102.88794
G1 X105.651 Y51.983 E102.98012
G1 X106.393 Y51.777 E103.07253
G1 X107.151 Y51.649 E103.16478
G1 X108 Y51.6 E103.26683
G1 X112.6 Y51.6 E103.81883
G1 X112.6 Y46.4 E104.44283
G1 X102 Y46.4 E105.71483
G1 X101.232 Y46.36 E105.80711
G1 X100.472 Y46.241 E105.89943
G1 X99.729 Y46.043 E105.9917
G1 X99.01 Y45.769 E106.08403
G1 X98.324 Y45.422 E106.17628
G1 X97.677 Y45.006 E106.26859
G1 X97.077 Y44.525 E106.36087
G1 X96.53 Y43.984 E106.45319
G1 X96.042 Y43.389 E106.54553
G1 X95.619 Y42.747 E106.63779
G1 X95.264 Y42.064 E106.73016
G1 X94.983 Y41.349 E106.82235
G1 X94.777 Y40.607 E106.91475
G1 X94.649 Y39.849 E107.007
G1 X94.6 Y39 E107.10905
G1 X94.6 Y29.5 E108.24905
G1 X94.64 Y28.732 E108.34134
G1 X94.759 Y27.972 E108.43365
G1 X94.957 Y27.229 E108.52592
G0 F3600 X95.357 Y27.293
G1 F1800 X95.63 Y26.597 E108.61563
G1 X95.977 Y25.934 E108.70543
G1 X96.392 Y25.311 E108.79526
G1 X96.871 Y24.737 E108.88497
G1 X97.408 Y24.216 E108.97476
G1 X97.998 Y23.757 E109.06446
G1 X98.634 Y23.362 E109.1543
G1 X99.308 Y23.038 E109.24404
G1 X100.013 Y22.788 E109.3338
G1 X100.741 Y22.614 E109.42362
G1 X101.483 Y22.519 E109.51339
G1 X102 Y22.5 E109.57547
G1 X127 Y22.5 E112.57547
G1 X127.747 Y22.54 E112.66524
G1 X128.485 Y22.659 E112.75495
G1 X129.207 Y22.857 E112.84478
G1 X129.903 Y23.13 E112.9345
G1 X130.566 Y23.477 E113.0243
G1 X131.189 Y23.892 E113.11413
G1 X131.763 Y24.371 E113.20384
G1 X132.284 Y24.908 E113.29362
G1 X132.743 Y25.498 E113.38332
G1 X133.138 Y26.134 E113.47317
G1 X133.462 Y26.808 E113.56291
G1 X133.712 Y27.513 E113.65267
G1 X133.886 Y28.241 E113.74249
G1 X133.981 Y28.983 E113.83226
G1 X134 Y29.5 E113.89434
G1 X134 Y193.5 E133.57434
G1 X133.96 Y194.247 E133.66411
G1 X133.841 Y194.985 E133.75381
G1 X133.643 Y195.707 E133.84365
G1 X133.37 Y196.403 E133.93336
G1 X133.023 Y197.066 E134.02316
G1 X132.608 Y197.689 E134.11299
G1 X132.129 Y198.263 E134.2027
G1 X131.592 Y198.784 E134.29249
G1 X131.002 Y199.243 E134.38219
G1 X130.366 Y199.638 E134.47203
G1 X129.692 Y199.962 E134.56177
G1 X128.987 Y200.212 E134.65153
G1 X128.259 Y200.386 E134.74135
G1 X127.517 Y200.481 E134.83112
G1 X127 Y200.5 E134.8932
G1 X119 Y200.5 E135.8532
G1 X118.253 Y200.46 E135.94297
G1 X117.515 Y200.341 E136.03267
G1 X116.793 Y200.143 E136.12251
G1 X116.097 Y199.87 E136.21223
G1 X115.434 Y199.523 E136.30203
G1 X114.811 Y199.108 E136.39185
G1 X114.237 Y198.629 E136.48157
G1 X113.716 Y198.092 E136.57135
G1 X113.257 Y197.502 E136.66105
G1 X112.862 Y196.866 E136.75089
G1 X112.538 Y196.192 E136.84063
G1 X112.288 Y195.487 E136.9304
G1 X112.114 Y194.759 E137.02022
G1 X112.019 Y194.017 E137.10998
G1 X112 Y193.5 E137.17207
G1 X112 Y125.35 E145.35007
G1 X94.751 Y114.412 E147.80103
G1 X94.142 Y113.978 E147.89077
G1 X93.582 Y113.481 E147.98062
G1 X93.079 Y112.928 E148.07032
G1 X92.637 Y112.324 E148.16013
G1 X92.262 Y111.677 E148.24987
G1 X91.959 Y110.993 E148.33965
G1 X91.73 Y110.281 E148.4294
G1 X91.579 Y109.548 E148.5192
G1 X91.5 Y108.5 E148.64532
G1 X91.5 Y97.9 E149.91732
G1 X91.05 Y97.45 E149.99369
G1 X90.55 Y96.893 E150.08351
G1 X90.113 Y96.287 E150.17316
G1 X89.742 Y95.637 E150.26297
G1 X89.443 Y94.951 E150.35277
G1 X89.219 Y94.237 E150.44257
G1 X89.072 Y93.504 E150.53228
G1 X89 Y92.5 E150.65307
G1 X89 Y79 E152.27307
G1 X89.04 Y78.253 E152.36284
G1 X89.159 Y77.515 E152.45254
G1 X89.357 Y76.793 E152.54238
G1 X89.63 Y76.097 E152.6321
G1 X89.977 Y75.434 E152.7219
G1 X90.392 Y74.811 E152.81172
G1 X90.871 Y74.237 E152.90144
G1 X91.408 Y73.716 E152.99122
G1 X91.998 Y73.257 E153.08092
G1 X92.634 Y72.862 E153.17077
G1 X93.308 Y72.538 E153.26051
G1 X94.013 Y72.288 E153.35027
G1 X94.741 Y72.114 E153.44009
G1 X95.483 Y72.019 E153.52985
G1 X96 Y72 E153.59194
G1 X101 Y72 E154.19194
G1 X101 Y59 E155.75194
G1 X101.04 Y58.253 E155.8417
G1 X101.159 Y57.515 E155.93141
G1 X101.357 Y56.793 E156.02125
G1 X101.63 Y56.097 E156.11096
G1 X101.977 Y55.434 E156.20076
G1 X102.392 Y54.811 E156.29059
G1 X102.871 Y54.237 E156.3803
G1 X103.408 Y53.716 E156.47009
G1 X103.998 Y53.257 E156.55979
G1 X104.634 Y52.862 E156.64963
G1 X105.308 Y52.538 E156.73937
G1 X106.013 Y52.288 E156.82913
G1 X106.741 Y52.114 E156.91895
G1 X107.483 Y52.019 E157.00872
G1 X108 Y52 E157.0708
G1 X113 Y52 E157.6708
G1 X113 Y46 E158.3908
G1 X102 Y46 E159.7108
G1 X101.253 Y45.96 E159.80057
G1 X100.515 Y45.841 E159.89027
G1 X99.793 Y45.643 E159.98011
G1 X99.097 Y45.37 E160.06983
G1 X98.434 Y45.023 E160.15962
G1 X97.811 Y44.608 E160.24945
G1 X97.237 Y44.129 E160.33917
G1 X96.716 Y43.592 E160.42895
G1 X96.257 Y43.002 E160.51865
G1 X95.862 Y42.366 E160.60849
G1 X95.538 Y41.692 E160.69823
G1 X95.288 Y40.987 E160.788
G1 X95.114 Y40.259 E160.87782
G1 X95.019 Y39.517 E160.96758
G1 X95 Y39 E161.02966
G1 X95 Y29.5 E162.16966
G1 X95.04 Y28.753 E162.25943
G1 X95.159 Y28.015 E162.34914
G1 X95.357 Y27.293 E162.43898
G0 F3600 X95.757 Y27.359
G1 F1800 X96.03 Y26.686 E162.52613
G1 X96.375 Y26.047 E162.61327
G1 X96.789 Y25.45 E162.70045
G1 X97.265 Y24.902 E162.78755
G1 X97.799 Y24.409 E162.87477
G1 X98.384 Y23.979 E162.96189
G1 X99.013 Y23.615 E163.0491
G1 X99.678 Y23.322 E163.1363
G1 X100.371 Y23.104 E163.22348
G1 X101.083 Y22.964 E163.31055
G1 X102 Y22.9 E163.42086
G1 X127 Y22.9 E166.42086
G1 X127.725 Y22.94 E166.50799
G1 X128.442 Y23.059 E166.59521
G1 X129.141 Y23.257 E166.68239
G1 X129.814 Y23.53 E166.76954
G1 X130.453 Y23.875 E166.85669
G1 X131.05 Y24.289 E166.94387
G1 X131.598 Y24.765 E167.03097
G1 X132.091 Y25.299 E167.11818
G1 X132.521 Y25.884 E167.20531
G1 X132.885 Y26.513 E167.29252
G1 X133.178 Y27.178 E167.37972
G1 X133.396 Y27.871 E167.4669
G1 X133.536 Y28.583 E167.55397
G1 X133.6 Y29.5 E167.66428
G1 X133.6 Y193.5 E187.34428
G1 X133.56 Y194.225 E187.43141
G1 X133.441 Y194.942 E187.51863
G1 X133.243 Y195.641 E187.60581
G1 X132.97 Y196.314 E187.69296
G1 X132.625 Y196.953 E187.7801
G1 X132.211 Y197.55 E187.86728
G1 X131.735 Y198.098 E187.95439
G1 X131.201 Y198.591 E188.0416
G1 X130.616 Y199.021 E188.12872
G1 X129.987 Y199.385 E188.21593
G1 X129.322 Y199.678 E188.30313
G1 X128.629 Y199.896 E188.39031
G1 X127.917 Y200.036 E188.47739
G1 X127 Y200.1 E188.58769
G1 X119 Y200.1 E189.54769
G1 X118.275 Y200.06 E189.63483
G1 X117.558 Y199.941 E189.72204
G1 X116.859 Y199.743 E189.80922
G1 X116.186 Y199.47 E189.89638
G1 X115.547 Y199.125 E189.98352
G1 X114.95 Y198.711 E190.0707
G1 X114.402 Y198.235 E190.1578
G1 X113.909 Y197.701 E190.24502
G1 X113.479 Y197.116 E190.33214
G1 X113.115 Y196.487 E190.41935
G1 X112.822 Y195.822 E190.50655
G1 X112.604 Y195.129 E190.59373
G1 X112.464 Y194.417 E190.6808
G1 X112.4 Y193.5 E190.79111
G1 X112.4 Y125.13 E198.99551
G1 X94.965 Y114.074 E201.47291
G1 X94.374 Y113.652 E201.56005
G1 X93.833 Y113.167 E201.64724
G1 X93.349 Y112.626 E201.73435
G1 X92.926 Y112.035 E201.82156
G1 X92.572 Y111.401 E201.9087
G1 X92.289 Y110.732 E201.99586
G1 X92.081 Y110.036 E202.08303
G1 X91.951 Y109.321 E202.17024
G1 X91.9 Y108.5 E202.26895
G1 X91.9 Y97.734 E203.56087
G1 X91.333 Y97.167 E203.65709
G1 X90.849 Y96.626 E203.7442
G1 X90.426 Y96.035 E203.83142
G1 X90.072 Y95.401 E203.91855
G1 X89.789 Y94.732 E204.00572
G1 X89.581 Y94.036 E204.09289
G1 X89.451 Y93.321 E204.1801
G1 X89.4 Y92.5 E204.27881
G1 X89.4 Y79 E205.89881
G1 X89.44 Y78.275 E205.98594
G1 X89.559 Y77.558 E206.07316
G1 X89.757 Y76.859 E206.16034
G1 X90.03 Y76.186 E206.24749
G1 X90.375 Y75.547 E206.33463
G1 X90.789 Y74.95 E206.42181
G1 X91.265 Y74.402 E206.50891
G1 X91.799 Y73.909 E206.59613
G1 X92.384 Y73.479 E206.68325
G1 X93.013 Y73.115 E206.77046
G1 X93.678 Y72.822 E206.85766
G1 X94.371 Y72.604 E206.94484
G1 X95.083 Y72.464 E207.03191
G1 X96 Y72.4 E207.14222
G1 X101.4 Y72.4 E207.79022
G1 X101.4 Y59 E209.39822
G1 X101.44 Y58.275 E209.48535
G1 X101.559 Y57.558 E209.57257
G1 X101.757 Y56.859 E209.65975
G1 X102.03 Y56.186 E209.7469
G1 X102.375 Y55.547 E209.83405
G1 X102.789 Y54.95 E209.92123
G1 X103.265 Y54.402 E210.00833
G1 X103.799 Y53.909 E210.09554
G1 X104.384 Y53.479 E210.18267
G1 X105.013 Y53.115 E210.26987
G1 X105.678 Y52.822 E210.35708
G1 X106.371 Y52.604 E210.44425
G1 X107.083 Y52.464 E210.53133
G1 X108 Y52.4 E210.64164
G1 X113.4 Y52.4 E211.28964
G1 X113.4 Y45.6 E212.10564
G1 X102 Y45.6 E213.47364
G1 X101.275 Y45.56 E213.56077
G1 X100.558 Y45.441 E213.64799
G1 X99.859 Y45.243 E213.73517
G1 X99.186 Y44.97 E213.82232
G1 X98.547 Y44.625 E213.90946
G1 X97.95 Y44.211 E213.99664
G1 X97.402 Y43.735 E214.08375
G1 X96.909 Y43.201 E214.17096
G1 X96.479 Y42.616 E214.25808
