;FLAVOR:UltiGCode
;TIME:13275
;MATERIAL:18753
;MATERIAL2:0
;NOZZLE_DIAMETER:0.4
;Generated with Cura_SteamEngine 3.3.1
M82 ;absolute extrusion mode

G92 E0
G10
;LAYER_COUNT:64
;LAYER:0
M107
G0 F3600 X52.179 Y27.717 Z0.3
;TYPE:SKIRT
G11
G1 F1800 X52.597 Y27.046 E0.09487
G1 X53.08 Y26.422 E0.18956
G1 X53.623 Y25.849 E0.28429
G1 X54.222 Y25.334 E0.37908
G1 X54.87 Y24.883 E0.47382
G1 X55.561 Y24.499 E0.56868
G1 X56.286 Y24.187 E0.6634
G1 X57.039 Y23.95 E0.75813
G1 X57.813 Y23.791 E0.85295
G1 X58.598 Y23.71 E0.94765
G1 X59 Y23.7 E0.9959
G1 X84 Y23.7 E3.9959
G1 X84.789 Y23.74 E4.0907
G1 X85.569 Y23.859 E4.18539
G1 X86.334 Y24.057 E4.28021
G1 X87.074 Y24.331 E4.3749
G1 X87.783 Y24.679 E4.46968
G1 X88.454 Y25.097 E4.56455
G1 X89.078 Y25.58 E4.65924
G1 X89.651 Y26.123 E4.75397
G1 X90.166 Y26.722 E4.84876
G1 X90.617 Y27.37 E4.9435
G1 X91.001 Y28.061 E5.03836
G1 X91.313 Y28.786 E5.13308
G1 X91.55 Y29.539 E5.22781
G1 X91.709 Y30.313 E5.32263
G1 X91.79 Y31.098 E5.41733
G1 X91.8 Y31.5 E5.46558
G1 X91.8 Y41 E6.60558
G1 X91.76 Y41.789 E6.70038
G1 X91.641 Y42.569 E6.79507
G1 X91.443 Y43.334 E6.88989
G1 X91.169 Y44.074 E6.98458
G1 X90.821 Y44.783 E7.07936
G1 X90.403 Y45.454 E7.17423
G1 X89.92 Y46.078 E7.26892
G1 X89.377 Y46.651 E7.36365
G1 X88.778 Y47.166 E7.45844
G1 X88.13 Y47.617 E7.55318
G1 X87.439 Y48.001 E7.64804
G1 X86.714 Y48.313 E7.74276
G1 X85.961 Y48.55 E7.83749
G1 X85.187 Y48.709 E7.93231
G1 X84.402 Y48.79 E8.02701
G1 X84 Y48.8 E8.07526
G1 X73.8 Y48.8 E9.29926
G1 X73.8 Y53.2 E9.82726
G1 X78 Y53.2 E10.33126
G1 X78.789 Y53.24 E10.42606
G1 X79.569 Y53.359 E10.52075
G1 X80.334 Y53.557 E10.61557
G1 X81.074 Y53.831 E10.71026
G1 X81.783 Y54.179 E10.80504
G1 X82.454 Y54.597 E10.89991
G1 X83.078 Y55.08 E10.9946
G1 X83.651 Y55.623 E11.08933
G1 X84.166 Y56.222 E11.18412
G1 X84.617 Y56.87 E11.27886
G1 X85.001 Y57.561 E11.37372
G1 X85.313 Y58.286 E11.46844
G1 X85.55 Y59.039 E11.56317
G1 X85.709 Y59.813 E11.65799
G1 X85.79 Y60.598 E11.75269
G1 X85.8 Y61 E11.80094
G1 X85.8 Y73.2 E13.26494
G1 X90 Y73.2 E13.76894
G1 X90.752 Y73.238 E13.8593
G1 X91.222 Y72.834 E13.93367
G1 X91.87 Y72.383 E14.02841
G1 X92.561 Y71.999 E14.12327
G1 X93.286 Y71.687 E14.21799
G1 X94.039 Y71.45 E14.31272
G1 X94.813 Y71.291 E14.40754
G1 X95.598 Y71.21 E14.50224
G1 X96 Y71.2 E14.55049
G1 X100.2 Y71.2 E15.05449
G1 X100.2 Y59 E16.51849
G1 X100.24 Y58.211 E16.61329
G1 X100.359 Y57.431 E16.70798
G1 X100.557 Y56.666 E16.8028
G1 X100.831 Y55.926 E16.89749
G1 X101.179 Y55.217 E16.99227
G1 X101.597 Y54.546 E17.08714
G1 X102.08 Y53.922 E17.18183
G1 X102.623 Y53.349 E17.27656
G1 X103.222 Y52.834 E17.37135
G1 X103.87 Y52.383 E17.46609
G1 X104.561 Y51.999 E17.56095
G1 X105.286 Y51.687 E17.65567
G1 X106.039 Y51.45 E17.7504
G1 X106.813 Y51.291 E17.84522
G1 X107.598 Y51.21 E17.93992
G1 X108 Y51.2 E17.98817
G1 X112.2 Y51.2 E18.49217
G1 X112.2 Y46.8 E19.02017
G1 X102 Y46.8 E20.24417
G1 X101.211 Y46.76 E20.33897
G1 X100.431 Y46.641 E20.43366
G1 X99.666 Y46.443 E20.52848
G1 X98.926 Y46.169 E20.62317
G1 X98.217 Y45.821 E20.71795
G1 X97.546 Y45.403 E20.81282
G1 X96.922 Y44.92 E20.90751
G1 X96.349 Y44.377 E21.00224
G1 X95.834 Y43.778 E21.09703
G1 X95.383 Y43.13 E21.19177
G1 X94.999 Y42.439 E21.28663
G1 X94.687 Y41.714 E21.38135
G1 X94.45 Y40.961 E21.47608
G1 X94.291 Y40.187 E21.5709
G1 X94.21 Y39.402 E21.6656
G1 X94.2 Y39 E21.71385
G1 X94.2 Y29.5 E22.85385
G1 X94.24 Y28.711 E22.94865
G1 X94.359 Y27.931 E23.04334
G1 X94.557 Y27.166 E23.13816
G1 X94.831 Y26.426 E23.23285
G1 X95.179 Y25.717 E23.32763
G1 X95.597 Y25.046 E23.4225
G1 X96.08 Y24.422 E23.51719
G1 X96.623 Y23.849 E23.61192
G1 X97.222 Y23.334 E23.70671
G1 X97.87 Y22.883 E23.80145
G1 X98.561 Y22.499 E23.89631
G1 X99.286 Y22.187 E23.99103
G1 X100.039 Y21.95 E24.08576
G1 X100.813 Y21.791 E24.18058
G1 X101.598 Y21.71 E24.27528
G1 X102 Y21.7 E24.32353
G1 X127 Y21.7 E27.32353
G1 X127.789 Y21.74 E27.41833
G1 X128.569 Y21.859 E27.51302
G1 X129.334 Y22.057 E27.60784
G1 X130.074 Y22.331 E27.70253
G1 X130.783 Y22.679 E27.79731
G1 X131.454 Y23.097 E27.89218
G1 X132.078 Y23.58 E27.98687
G1 X132.651 Y24.123 E28.0816
G1 X133.166 Y24.722 E28.17639
G1 X133.617 Y25.37 E28.27113
G1 X134.001 Y26.061 E28.36599
G1 X134.313 Y26.786 E28.46071
G1 X134.55 Y27.539 E28.55544
G1 X134.709 Y28.313 E28.65026
G1 X134.79 Y29.098 E28.74496
G1 X134.8 Y29.5 E28.79321
G1 X134.8 Y193.5 E48.47321
G1 X134.76 Y194.289 E48.56801
G1 X134.641 Y195.069 E48.6627
G1 X134.443 Y195.834 E48.75752
G1 X134.169 Y196.574 E48.85221
G1 X133.821 Y197.283 E48.94699
G1 X133.403 Y197.954 E49.04186
G1 X132.92 Y198.578 E49.13655
G1 X132.377 Y199.151 E49.23128
G1 X131.778 Y199.666 E49.32607
G1 X131.13 Y200.117 E49.42081
G1 X130.439 Y200.501 E49.51567
G1 X129.714 Y200.813 E49.61039
G1 X128.961 Y201.05 E49.70512
G1 X128.187 Y201.209 E49.79994
G1 X127.402 Y201.29 E49.89464
G1 X127 Y201.3 E49.94289
G1 X119 Y201.3 E50.90289
G1 X118.211 Y201.26 E50.9977
G1 X117.431 Y201.141 E51.09238
G1 X116.666 Y200.943 E51.1872
G1 X115.926 Y200.669 E51.28189
G1 X115.217 Y200.321 E51.37667
G1 X114.546 Y199.903 E51.47154
G1 X113.922 Y199.42 E51.56623
G1 X113.349 Y198.877 E51.66096
G1 X112.834 Y198.278 E51.75575
G1 X112.383 Y197.63 E51.85049
G1 X111.999 Y196.939 E51.94536
G1 X111.687 Y196.214 E52.04007
G1 X111.45 Y195.461 E52.1348
G1 X111.291 Y194.687 E52.22962
G1 X111.21 Y193.902 E52.32432
G1 X111.2 Y193.5 E52.37257
G1 X111.2 Y125.789 E60.49789
G1 X94.323 Y115.087 E62.89599
G1 X93.974 Y114.84 E62.9473
G1 X93.903 Y114.954 E62.96341
G1 X93.42 Y115.578 E63.05811
G1 X92.877 Y116.151 E63.15284
G1 X92.278 Y116.666 E63.24763
G1 X91.677 Y117.087 E63.33568
G1 X74.8 Y127.789 E65.73378
G1 X74.8 Y195.5 E73.8591
G1 X74.76 Y196.289 E73.9539
G1 X74.641 Y197.069 E74.04859
G1 X74.443 Y197.834 E74.14341
G1 X74.169 Y198.574 E74.2381
G1 X73.821 Y199.283 E74.33288
G1 X73.403 Y199.954 E74.42774
G1 X72.92 Y200.578 E74.52244
G1 X72.377 Y201.151 E74.61717
G1 X71.778 Y201.666 E74.71196
G1 X71.13 Y202.117 E74.8067
G1 X70.439 Y202.501 E74.90156
G1 X69.714 Y202.813 E74.99628
G1 X68.961 Y203.05 E75.09101
G1 X68.187 Y203.209 E75.18583
G1 X67.402 Y203.29 E75.28053
G1 X67 Y203.3 E75.32878
G1 X59 Y203.3 E76.28878
G1 X58.211 Y203.26 E76.38358
G1 X57.431 Y203.141 E76.47827
G1 X56.666 Y202.943 E76.57309
G1 X55.926 Y202.669 E76.66778
G1 X55.217 Y202.321 E76.76256
G1 X54.546 Y201.903 E76.85742
G1 X53.922 Y201.42 E76.95212
G1 X53.349 Y200.877 E77.04685
G1 X52.834 Y200.278 E77.14164
G1 X52.383 Y199.63 E77.23638
G1 X51.999 Y198.939 E77.33124
G1 X51.687 Y198.214 E77.42596
G1 X51.45 Y197.461 E77.52069
G1 X51.291 Y196.687 E77.61551
G1 X51.21 Y195.902 E77.71021
G1 X51.2 Y195.5 E77.75846
G1 X51.2 Y31.5 E97.43846
G1 X51.24 Y30.711 E97.53326
G1 X51.359 Y29.931 E97.62795
G1 X51.557 Y29.166 E97.72277
G1 X51.831 Y28.426 E97.81746
G1 X52.179 Y27.717 E97.91224
G0 F3600 X52.578 Y27.824
G1 F1800 X52.994 Y27.177 E98.00454
G1 X53.475 Y26.577 E98.09682
G1 X54.016 Y26.03 E98.18914
G1 X54.611 Y25.542 E98.28149
G1 X55.253 Y25.119 E98.37375
G1 X55.936 Y24.764 E98.46612
G1 X56.651 Y24.483 E98.5583
G1 X57.393 Y24.277 E98.65071
G1 X58.151 Y24.149 E98.74296
G1 X59 Y24.1 E98.84501
G1 X84 Y24.1 E101.84501
G1 X84.768 Y24.14 E101.93729
G1 X85.528 Y24.259 E102.02961
G1 X86.271 Y24.457 E102.12188
G1 X86.99 Y24.731 E102.21421
G1 X87.676 Y25.078 E102.30646
G1 X88.323 Y25.494 E102.39877
G1 X88.923 Y25.975 E102.49105
G1 X89.47 Y26.516 E102.58337
G1 X89.958 Y27.111 E102.67571
G1 X90.381 Y27.753 E102.76797
G1 X90.736 Y28.436 E102.86034
G1 X91.017 Y29.151 E102.95253
G1 X91.223 Y29.893 E103.04494
G1 X91.351 Y30.651 E103.13718
G1 X91.4 Y31.5 E103.23923
G1 X91.4 Y41 E104.37923
G1 X91.36 Y41.768 E104.47152
G1 X91.241 Y42.528 E104.56383
G1 X91.043 Y43.271 E104.6561
G1 X90.769 Y43.99 E104.74843
G1 X90.422 Y44.676 E104.84069
G1 X90.006 Y45.323 E104.93299
G1 X89.525 Y45.923 E105.02527
G1 X88.984 Y46.47 E105.11759
G1 X88.389 Y46.958 E105.20993
G1 X87.747 Y47.381 E105.30219
G1 X87.064 Y47.736 E105.39456
G1 X86.349 Y48.017 E105.48675
G1 X85.607 Y48.223 E105.57916
G1 X84.849 Y48.351 E105.67141
G1 X84 Y48.4 E105.77346
G1 X73.4 Y48.4 E107.04546
G1 X73.4 Y53.6 E107.66946
G1 X78 Y53.6 E108.22146
G1 X78.768 Y53.64 E108.31374
G1 X79.528 Y53.759 E108.40605
G1 X80.271 Y53.957 E108.49832
G1 X80.99 Y54.231 E108.59066
G1 X81.676 Y54.578 E108.68291
G1 X82.323 Y54.994 E108.77521
G1 X82.923 Y55.475 E108.86749
G1 X83.47 Y56.016 E108.95981
G1 X83.958 Y56.611 E109.05216
G1 X84.381 Y57.253 E109.14442
G1 X84.736 Y57.936 E109.23679
G1 X85.017 Y58.651 E109.32897
G1 X85.223 Y59.393 E109.42138
G1 X85.351 Y60.151 E109.51363
G1 X85.4 Y61 E109.61568
G1 X85.4 Y73.6 E111.12768
G1 X90 Y73.6 E111.67968
G1 X90.768 Y73.64 E111.77196
G1 X90.889 Y73.659 E111.78666
G1 X91.016 Y73.53 E111.80838
G1 X91.611 Y73.042 E111.90073
G1 X92.253 Y72.619 E111.99299
G1 X92.936 Y72.264 E112.08536
G1 X93.651 Y71.983 E112.17754
G1 X94.393 Y71.777 E112.26995
G1 X95.151 Y71.649 E112.3622
G1 X96 Y71.6 E112.46425
G1 X100.6 Y71.6 E113.01625
G1 X100.6 Y59 E114.52825
G1 X100.64 Y58.232 E114.62053
G1 X100.759 Y57.472 E114.71285
G1 X100.957 Y56.729 E114.80512
G1 X101.231 Y56.01 E114.89745
G1 X101.578 Y55.324 E114.9897
G1 X101.994 Y54.677 E115.08201
G1 X102.475 Y54.077 E115.17429
G1 X103.016 Y53.53 E115.26661
G1 X103.611 Y53.042 E115.35895
G1 X104.253 Y52.619 E115.45121
G1 X104.936 Y52.264 E115.54358
G1 X105.651 Y51.983 E115.63577
G1 X106.393 Y51.777 E115.72818
G1 X107.151 Y51.649 E115.82042
G1 X108 Y51.6 E115.92247
G1 X112.6 Y51.6 E116.47447
G1 X112.6 Y46.4 E117.09847
G1 X102 Y46.4 E118.37047
G1 X101.232 Y46.36 E118.46276
G1 X100.472 Y46.241 E118.55507
G1 X99.729 Y46.043 E118.64734
G1 X99.01 Y45.769 E118.73967
G1 X98.324 Y45.422 E118.83193
G1 X97.677 Y45.006 E118.92423
G1 X97.077 Y44.525 E119.01651
G1 X96.53 Y43.984 E119.10883
G1 X96.042 Y43.389 E119.20117
G1 X95.619 Y42.747 E119.29343
G1 X95.264 Y42.064 E119.3858
G1 X94.983 Y41.349 E119.47799
G1 X94.777 Y40.607 E119.5704
G1 X94.649 Y39.849 E119.66265
G1 X94.6 Y39 E119.7647
G1 X94.6 Y29.5 E120.9047
G1 X94.64 Y28.732 E120.99698
G1 X94.759 Y27.972 E121.08929
G1 X94.957 Y27.229 E121.18156
G1 X95.231 Y26.51 E121.2739
G1 X95.578 Y25.824 E121.36615
G1 X95.994 Y25.177 E121.45845
G1 X96.475 Y24.577 E121.55073
G1 X97.016 Y24.03 E121.64305
G1 X97.611 Y23.542 E121.7354
G1 X98.253 Y23.119 E121.82766
G1 X98.936 Y22.764 E121.92003
G1 X99.651 Y22.483 E122.01221
G1 X100.393 Y22.277 E122.10462
G1 X101.151 Y22.149 E122.19687
G1 X102 Y22.1 E122.29892
G1 X127 Y22.1 E125.29892
G1 X127.768 Y22.14 E125.3912
G1 X128.528 Y22.259 E125.48351
G1 X129.271 Y22.457 E125.57579
G1 X129.99 Y22.731 E125.66812
G1 X130.676 Y23.078 E125.76037
G1 X131.323 Y23.494 E125.85268
G1 X131.923 Y23.975 E125.94496
G1 X132.47 Y24.516 E126.03728
G1 X132.958 Y25.111 E126.12962
G1 X133.381 Y25.753 E126.22188
G1 X133.736 Y26.436 E126.31425
G1 X134.017 Y27.151 E126.40644
G1 X134.223 Y27.893 E126.49884
G1 X134.351 Y28.651 E126.59109
G1 X134.4 Y29.5 E126.69314
G1 X134.4 Y193.5 E146.37314
G1 X134.36 Y194.268 E146.46543
G1 X134.241 Y195.028 E146.55774
G1 X134.043 Y195.771 E146.65001
G1 X133.769 Y196.49 E146.74234
G1 X133.422 Y197.176 E146.83459
G1 X133.006 Y197.823 E146.9269
G1 X132.525 Y198.423 E147.01918
G1 X131.984 Y198.97 E147.1115
G1 X131.389 Y199.458 E147.20384
G1 X130.747 Y199.881 E147.2961
G1 X130.064 Y200.236 E147.38847
G1 X129.349 Y200.517 E147.48066
G1 X128.607 Y200.723 E147.57307
G1 X127.849 Y200.851 E147.66532
G1 X127 Y200.9 E147.76736
G1 X119 Y200.9 E148.72736
G1 X118.232 Y200.86 E148.81965
G1 X117.472 Y200.741 E148.91196
G1 X116.729 Y200.543 E149.00423
G1 X116.01 Y200.269 E149.09657
G1 X115.324 Y199.922 E149.18882
G1 X114.677 Y199.506 E149.28112
G1 X114.077 Y199.025 E149.3734
G1 X113.53 Y198.484 E149.46572
G1 X113.042 Y197.889 E149.55807
G1 X112.619 Y197.247 E149.65032
G1 X112.264 Y196.564 E149.74269
G1 X111.983 Y195.849 E149.83488
G1 X111.777 Y195.107 E149.92729
G1 X111.649 Y194.349 E150.01954
G1 X111.6 Y193.5 E150.12159
G1 X111.6 Y125.569 E158.27331
G1 X94.537 Y114.749 E160.69784
G1 X93.91 Y114.304 E160.7901
G1 X93.865 Y114.265 E160.79725
G1 X93.506 Y114.823 E160.87687
G1 X93.025 Y115.423 E160.96915
G1 X92.484 Y115.97 E161.06147
G1 X91.889 Y116.458 E161.15381
G1 X91.463 Y116.749 E161.21572
G1 X74.4 Y127.569 E163.64025
G1 X74.4 Y195.5 E171.79197
G1 X74.36 Y196.268 E171.88426
G1 X74.241 Y197.028 E171.97657
G1 X74.043 Y197.771 E172.06884
G1 X73.769 Y198.49 E172.16117
G1 X73.422 Y199.176 E172.25342
G1 X73.006 Y199.823 E172.34573
G1 X72.525 Y200.423 E172.43801
G1 X71.984 Y200.97 E172.53033
G1 X71.389 Y201.458 E172.62267
G1 X70.747 Y201.881 E172.71493
G1 X70.064 Y202.236 E172.8073
G1 X69.349 Y202.517 E172.89949
G1 X68.607 Y202.723 E172.9919
G1 X67.849 Y202.851 E173.08414
G1 X67 Y202.9 E173.18619
G1 X59 Y202.9 E174.14619
G1 X58.232 Y202.86 E174.23848
G1 X57.472 Y202.741 E174.33079
G1 X56.729 Y202.543 E174.42306
G1 X56.01 Y202.269 E174.51539
G1 X55.324 Y201.922 E174.60765
G1 X54.677 Y201.506 E174.69995
G1 X54.077 Y201.025 E174.79223
G1 X53.53 Y200.484 E174.88455
G1 X53.042 Y199.889 E174.97689
G1 X52.619 Y199.247 E175.06915
G1 X52.264 Y198.564 E175.16152
G1 X51.983 Y197.849 E175.25371
G1 X51.777 Y197.107 E175.34612
G1 X51.649 Y196.349 E175.43837
G1 X51.6 Y195.5 E175.54042
G1 X51.6 Y31.5 E195.22042
G1 X51.64 Y30.732 E195.3127
G1 X51.759 Y29.972 E195.40501
G1 X51.957 Y29.229 E195.49728
G1 X52.231 Y28.51 E195.58962
G1 X52.578 Y27.824 E195.68187
G0 F3600 X52.977 Y27.934
G1 F1800 X53.392 Y27.311 E195.7717
G1 X53.871 Y26.737 E195.86141
G1 X54.408 Y26.216 E195.9512
G1 X54.998 Y25.757 E196.0409
G1 X55.634 Y25.362 E196.13074
G1 X56.308 Y25.038 E196.22048
G1 X57.013 Y24.788 E196.31024
G1 X57.741 Y24.614 E196.40006
G1 X58.483 Y24.519 E196.48983
G1 X59 Y24.5 E196.55191
G1 X84 Y24.5 E199.55191
G1 X84.747 Y24.54 E199.64168
G1 X85.485 Y24.659 E199.73138
G1 X86.207 Y24.857 E199.82122
G1 X86.903 Y25.13 E199.91094
G1 X87.566 Y25.477 E200.00073
G1 X88.189 Y25.892 E200.09056
G1 X88.763 Y26.371 E200.18028
G1 X89.284 Y26.908 E200.27006
G1 X89.743 Y27.498 E200.35976
G1 X90.138 Y28.134 E200.4496
G1 X90.462 Y28.808 E200.53934
G1 X90.712 Y29.513 E200.6291
G1 X90.886 Y30.241 E200.71893
G1 X90.981 Y30.983 E200.80869
G1 X91 Y31.5 E200.87077
G1 X91 Y41 E202.01077
G1 X90.96 Y41.747 E202.10054
G1 X90.841 Y42.485 E202.19025
G1 X90.643 Y43.207 E202.28009
G1 X90.37 Y43.903 E202.3698
G1 X90.023 Y44.566 E202.4596
G1 X89.608 Y45.189 E202.54943
G1 X89.129 Y45.763 E202.63914
G1 X88.592 Y46.284 E202.72892
G1 X88.002 Y46.743 E202.81863
G1 X87.366 Y47.138 E202.90847
G1 X86.692 Y47.462 E202.99821
G1 X85.987 Y47.712 E203.08797
G1 X85.259 Y47.886 E203.17779
G1 X84.517 Y47.981 E203.26756
G1 X84 Y48 E203.32964
G1 X73 Y48 E204.64964
G1 X73 Y54 E205.36964
G1 X78 Y54 E205.96964
G1 X78.747 Y54.04 E206.05941
G1 X79.485 Y54.159 E206.14911
G1 X80.207 Y54.357 E206.23895
G1 X80.903 Y54.63 E206.32866
G1 X81.566 Y54.977 E206.41846
G1 X82.189 Y55.392 E206.50829
G1 X82.763 Y55.871 E206.598
G1 X83.284 Y56.408 E206.68779
G1 X83.743 Y56.998 E206.77749
G1 X84.138 Y57.634 E206.86733
G1 X84.462 Y58.308 E206.95707
G1 X84.712 Y59.013 E207.04683
G1 X84.886 Y59.741 E207.13665
G1 X84.981 Y60.483 E207.22642
G1 X85 Y61 E207.2885
G1 X85 Y74 E208.8485
G1 X90 Y74 E209.4485
G1 X90.747 Y74.04 E209.53827
G1 X91.027 Y74.085 E209.5723
G1 X91.408 Y73.716 E209.63595
G1 X91.998 Y73.257 E209.72565
G1 X92.634 Y72.862 E209.81549
G1 X93.308 Y72.538 E209.90523
G1 X94.013 Y72.288 E209.99499
G1 X94.741 Y72.114 E210.08482
G1 X95.483 Y72.019 E210.17458
G1 X96 Y72 E210.23666
G1 X101 Y72 E210.83666
G1 X101 Y59 E212.39666
G1 X101.04 Y58.253 E212.48643
G1 X101.159 Y57.515 E212.57614
G1 X101.357 Y56.793 E212.66598
G1 X101.63 Y56.097 E212.75569
G1 X101.977 Y55.434 E212.84549
G1 X102.392 Y54.811 E212.93532
G1 X102.871 Y54.237 E213.02503
G1 X103.408 Y53.716 E213.11481
G1 X103.998 Y53.257 E213.20452
G1 X104.634 Y52.862 E213.29436
G1 X105.308 Y52.538 E213.3841
G1 X106.013 Y52.288 E213.47386
G1 X106.741 Y52.114 E213.56368
G1 X107.483 Y52.019 E213.65345
G1 X108 Y52 E213.71553
G1 X113 Y52 E214.31553
G1 X113 Y46 E215.03553
G1 X102 Y46 E216.35553
G1 X101.253 Y45.96 E216.4453
G1 X100.515 Y45.841 E216.535
G1 X99.793 Y45.643 E216.62484
